X:1
T:Sankey, 11.11.11.11
T:Sankey, 11.11.11.11
T:Ira David Sankey, 1877
T:Public Domain Courtesy of the Cyber Hymnal™
C:Ira David Sankey, 1877
Z:Public Domain
Z:Courtesy of the Cyber Hymnal™
%%score ( 1 2 ) ( 3 4 )
L:1/8
Q:1/4=125
M:4/4
K:F
V:1 treble 
V:2 treble 
V:3 bass 
V:4 bass 
V:1
 [Fc]2 | [Fc]4 [FB]2 [FA]2 | [FA]4 [CG]2 [CF]2 | F2 E2 D2 [CE]2 | [CF]6 F2 | [FB]4 [FA]2 [Fd]2 | %6
 [Fc]4 [FA]2 F2 | [EG]4 [FA]2 [F=B]2 | [Ec]6 [Ec]2 | [Fc]4 [FB]2 [FA]2 | [FA]4 [CG]2 [CF]2 | %11
 F2 E2 D2 [CE]2 | [CF]6 F2 | [FB]4 [FA]2 [Fd]2 | [Fc]4 [FA]2 F2 | [FA]4 [EA]3 [EG] | F6 |] %17
V:2
 x2 | x8 | x8 | B,4 D2 x2 | x6 F2 | x8 | x6 F2 | x8 | x8 | x8 | x8 | B,4 D2 x2 | x6 F2 | x8 | %14
 x6 F2 | x8 | F6 |] %17
V:3
 [F,A,]2 | [F,A,]4 [F,D]2 [F,C]2 | [F,C]4 [F,B,]2 [F,A,]2 | [C,G,]4 [C,B,]2 [C,B,]2 | %4
 [F,A,]6 [F,A,]2 | [F,D]4 [F,C]2 [F,B,]2 | [F,A,]4 [F,C]2 [A,,C]2 | [C,C]4 [F,C]2 [D,G,]2 | %8
 [C,G,]6 [C,B,]2 | [F,A,]4 [F,D]2 [F,C]2 | [F,C]4 [F,B,]2 [F,A,]2 | [C,G,]4 [C,B,]2 [C,B,]2 | %12
 [F,A,]6 [F,A,]2 | [F,D]4 [F,C]2 [F,B,]2 | [F,A,]4 F,2 [D,A,]2 | [C,C]4 [C,C]3 [C,B,] | [F,A,]6 |] %17
V:4
 x2 | x8 | x8 | x8 | x8 | x8 | x8 | x8 | x8 | x8 | x8 | x8 | x8 | x8 | x4 F,2 x2 | x8 | x6 |] %17

